!!!COM: Mozart, Wolfgang Amadeus
!!!CDT: 1756/01/27/-1791/12/05/
!!!CNT: German
!!!OTL: Piano Sonata No. 2 in F major
!!!SCT1: K<sup>1</sup> 280
!!!SCT2: K<sup>6</sup> 189e
!!!OMV: 2
!!!OMD: Adagio
!!!ODT: 1774///
**kern	**kern	**dynam
*staff2	*staff1	*staff1/2
*>[A,A,B,B]	*>[A,A,B,B]	*>[A,A,B,B]
*>norep[A,B]	*>norep[A,B]	*>norep[A,B]
*>A	*>A	*>A
*clefF4	*clefG2	*clefG2
*k[b-e-a-d-]	*k[b-e-a-d-]	*k[b-e-a-d-]
*f:	*f:	*f:
*M6/8	*M6/8	*M6/8
*MM72	*MM72	*MM72
=1-	=1-	=1-
4F 4A-	8.cctL	f
.	16dd-k	.
8r	8ccJ	.
4r	(4cc	.
8r	8ff)	.
=2	=2	=2
*	*^	*
[4.B- [4.d-	[4.ff	8.gL	.
.	.	16a-k	.
.	.	8gJ	.
8B-] 8d-]	8ffL]	8g	.
8r	8ee-X	8re	.
8r	8dd-J	8re	.
=3	=3	=3	=3
8.cL	2.cc	[4.en [4.g	p
16d-k	.	.	.
8cJ	.	.	.
4.c	.	8e] 8g]L	.
.	.	8f 8a-	.
.	.	8g 8b-J	.
*	*v	*v	*
=4	=4	=4
*^	*	*
[4.d-	2.D-	8.g 8.b-L	f
.	.	16f 16a-k	.
.	.	8en 8gJ	.
8.d-L]	.	[4.f [4.a-	.
16ck	.	.	.
8BnJ	.	.	.
=5	=5	=5	=5
2.c	2.C	8.f] 8.a-L]	p
.	.	16g 16b-k	.
.	.	8f 8a-J	.
.	.	8en 8gL	.
.	.	8f 8a-	.
.	.	8g 8b-J	.
=6	=6	=6	=6
[4.d-	2.D-	8.g 8.b-L	f
.	.	16f 16a-k	.
.	.	8en 8gJ	.
8.d-L]	.	[4.f [4.a-	.
16ck	.	.	.
8BnJ	.	.	.
=7	=7	=7	=7
[4.c	2.C	8.f] 8.a-L]	p
.	.	16en 16gk	.
.	.	8f 8a-J	.
4c]	.	8g 8b-L	.
.	.	8f 8a-	.
8B-X	.	8e 8gJ	.
=8	=8	=8	=8
*	*	*^	*
(4.B-	[4.F	(4.g	(4.en	f
8A-)	8F]	8f)	8f)	.
8ryy	8r	8r	8ryy	.
8ryy	8r;	8r;	8ryy	.
*v	*v	*	*	*
*	*v	*v	*
=9	=9	=9
!LO:TX:i:t=legato	!	!
16E-XLL	8a-	p
16A-	.	.
16c	8r	.
16A-	.	.
16E-	8a-	.
16A-JJ	.	.
16E-LL	8b-	.
16G	.	.
16B-	8r	.
16G	.	.
16E-	8b-	.
16GJJ	.	.
=10	=10	=10
16E-LL	(4.b-	f
16G	.	.
16B-	.	.
16G	.	.
16E-	.	.
16GJJ	.	.
16E-LL	8cc)	.
16A-	.	.
16c	8r	.
16A-	.	.
16E-	8a-	.
16A-JJ	.	.
=11	=11	=11
16FLL	8dd-	.
16A-	.	.
16d-	8r	.
16A-	.	.
16E-	8cc	.
16A-JJ	.	.
16DnLL	8ff	.
16F	.	.
16B-	8r	.
16F	.	.
16D	8f	p
16FJJ	.	.
=12	=12	=12
16E-LL	(4.a-	.
16A-	.	.
16c	.	.
16A-	.	.
16E-	.	.
16A-JJ	.	.
16E-LL	8g)	.
16G	.	.
16B-	8r	.
16G	.	.
16E-	8ee-	.
16GJJ	.	.
=13	=13	=13
16F-LL	(4.ddn	f
16A-	.	.
16c-	.	.
16A-	.	.
16F-	.	.
16A-JJ	.	.
16F-LL	8aa-)	.
16A-	.	.
16c-	8r	.
16A-	.	.
16F-	8r	.
16A-JJ	.	.
=14	=14	=14
16E-LL	(4.gg	p
16G	.	.
16B-	.	.
16G	.	.
16E-	.	.
16GJJ	.	.
16E-LL	8bb-)	.
16G	.	.
16B-	8r	.
16G	.	.
16e-	8r	.
16B-JJ	.	.
*clefG2	*	*
=15	=15	=15
16dnLL	(4.ccc-	f
16f	.	.
16a-	.	.
16f	.	.
16d	.	.
16fJJ	.	.
16dLL	8aa-)	.
16f	.	.
16cc-	8r	.
16f	.	.
16d	8r	.
16fJJ	.	.
=16	=16	=16
16d-XLL	(4.eee-	p
16g	.	.
16b-	.	.
16g	.	.
16d-	.	.
16gJJ	.	.
16d-LL	8gg)	.
16e-	.	.
16b-	8r	.
16e-	.	.
16d-	8r	.
16e-JJ	.	.
=17	=17	=17
16cLL	8r	.
16e-	.	.
16a-	8aa-'L	.
16e-	.	.
16c	8aa-'J	.
16e-JJ	.	.
16d-LL	8r	.
16f	.	.
16a-	8ff'L	.
16f	.	.
16d-	8ff'J	.
16fJJ	.	.
=18	=18	=18
16e-LL	8r	.
16a-	.	.
16cc	8ee-'L	.
16a-	.	.
16e-	8ee-'J	.
16a-JJ	.	.
16e-LL>	8r	.
16b-	.	.
16dd-	8gg'L	.
16b-	.	.
16dd-	8gg'J	.
16b-JJ	.	.
=19	=19	=19
16fLL	4aa-	f
16a-	.	.
16cc	.	.
16a-	.	.
16f	(16cccLL	.
16a-JJ	16aa-JJ)	.
16d-LL	(16ggLK	.
16f	8ff)	.
16a-	.	.
16f	(16aa-L	.
16d-	16gg	.
16fJJ	16ffJJ)	.
*clefF4	*	*
=20	=20	=20
16E-LL	(16ffLK	.
16A-	8ee-)	.
16c	.	.
16A-	(32ffLL	.
.	32ee-JJJ	.
16E-	32dd-LLL	.
.	32cc	.
16A-JJ	32b-	.
.	32a-JJJ)	.
16E-LL	4.b-TT	.
16G	.	.
16d-	.	.
16G	.	.
16E-	.	.
16GJJ	.	.
.	32a-qLLL	.
.	32b-qJJJ	.
=21	=21	=21
8A-	8a-	.
8r	8r	.
(8En	8g 8b- 8cc	p
8F)	8f 8a- 8cc	.
8r	8r	.
8D-	8f 8b- 8dd-	f
=22	=22	=22
*	*^	*
4E-X	8.a- 8.ccL	4e-	.
.	16b- 16dd-k	.	.
(8EE-	8g 8b-J	8d-	.
8AA-)	8e- 8a-	8c	.
8r	8ryy	8r	.
*	*clefF4	*	*
(8EEn	8ryy	8G 8B- 8c	p
=23	=23	=23	=23
8FF)	8ryy	8F 8A- 8c	.
8r	8ryy	8r	.
8DD-	8ryy	8F 8B- 8d-	f
4EE-X	8.A- 8.cL	4E-	.
.	16B- 16d-k	.	.
8EE-	8G 8B-J	8D-	.
*	*v	*v	*
=24	=24	=24
(4.AA-	4.D- 4.G (4.B-	.
8AAA-)	8C 8A-)	.
8r	8r	.
8r	8r	.
*	*clefG2	*clefG2
=25:|!|:	=25:|!|:	=25:|!|:
*>B	*>B	*>B
2.r	8.ee-TL	p
.	16ffk	.
.	8ee-J	.
.	4ee-	.
.	8ee-	.
*clefG2	*	*
=26	=26	=26
*	*^	*
(4g-	(4ee-	[4.an [4.cc	f
8f)	8ff)	.	.
8e-	8gg-	8a] 8cc]	.
8r	4ryy	8r	.
8r	.	8r	.
*clefF4	*	*	*
=27	=27	=27	=27
(4G-	(4e-	[4.An [4.c	p
8F)	8f)	.	.
8E-	8g-	8A] 8c]	.
8r	8r	4ryy	.
8r	8r	.	.
*	*v	*v	*
=28	=28	=28
8D-' 8d-'L	8f' 8b-'L	f
8C' 8c'	8e-' 8an'	.
8BB-' 8B-'J	8d-' 8b-'J	.
8AAn' 8An'	8f:/ 8cc:/ 8ee-:/	.
8r	8r	.
8r	8r	.
=29	=29	=29
*	*^	*
8BB-	4.ryy	16r	p
.	.	(>16dd-LL	.
8r	.	16cc	.
.	.	16dd-	.
8r	.	16ee-	.
.	.	16dd-JJ	.
16r	[4.gg-)	16r	.
(16B-LL	.	(16dd-LL	.
16An	.	16cc	.
16B-	.	16dd-	.
16c	.	16ee-	.
16B-JJ	.	16dd-JJ	.
=30	=30	=30	=30
[4.An)	16gg-LL]	[4.cc)	.
.	(16gg-	.	.
.	16ff	.	.
.	16gg-	.	.
.	16aa-X	.	.
.	16gg-JJ	.	.
16ALL]	[4.ff)	16ccLL]	.
(16A-	.	(16cc	.
16G	.	16bn	.
16A-	.	16cc	.
16B-X	.	16dd-X	.
16A-JJ	.	16ccJJ	.
=31	=31	=31	=31
*^	*	*	*
16r	8G)	16ffLL]	8bn)	.
(16dnLL	.	(16ff	.	.
16c#	8rBB	16een	8rg	.
16d	.	16ff	.	.
16e-X	8rBB	16ggn	8rg	.
16dJJ)	.	16ffJJ)	.	.
16r	8F#	4.ryy	16r	.
(16cnLL	.	.	(>16ee-LL	.
16Bn	8rBB	.	16ddn	.
16c	.	.	16ee-	.
16d	8rBB	.	16ff	.
16cJJ)	.	.	16ee-JJ	.
*v	*v	*	*	*
*	*v	*v	*
=32	=32	=32
16r	8bn 8ddn)	f
(16GLL	.	.
16F#	8r	.
16G	.	.
16A-X	8r	.
16GJJ)	.	.
8GG;<	4r;	.
8r	.	.
8r	8r	.
=33	=33	=33
4C/ 4E-/	8.gtL	f
.	16a-k	.
8r	8gJ	.
4r	(>4g	.
8r	8cc)	.
=34	=34	=34
*	*^	*
[4.F [4.A-	[4.cc	8.dnL	.
.	.	16e-k	.
.	.	8dJ	.
8F] 8A-]	8ccL]	8d	.
8r	8b-X	8rc	.
8r	8a-J	8rc	.
=35	=35	=35	=35
8.GL	[2.g	[4.Bn [4.dn	p
16A-k	.	.	.
8GJ	.	.	.
4.G	.	8B] 8dL]	.
.	.	8c 8e-	.
.	.	8d 8fJ	.
=36	=36	=36	=36
(8.CL	4.g_	[4.c 4.f	.
16D-Xk	.	.	.
8CJ)	.	.	.
4.C	8en 8gL]	8c]	.
.	8f (8a-	8rA	.
.	8g 8b-XJ)	8rA	.
*	*v	*v	*
=37	=37	=37
4F 4A-	8.cctL 8.a-	f
.	16dd-Xk	.
8r	8ccJ	.
4r	(4cc	.
8r	8ff)	.
=38	=38	=38
*	*^	*
[4.B- [4.d-	[4.ff	8.gL	.
.	.	16a-k	.
.	.	8gJ	.
8B-] 8d-]	8ffL]	8g	.
8r	8ee-X	8r	.
8r	8dd-J	8r	.
=39	=39	=39	=39
8.cL	[4.cc	[4.en [4.g	p
16d-k	.	.	.
8cJ	.	.	.
4.c	4.cc]	8e] 8gL]	.
.	.	8f 8a-	.
.	.	8g 8b-J	.
*	*v	*v	*
=40	=40	=40
*^	*	*
[4.d-	2.D-	8.g 8.b-L	f
.	.	16f 16a-k	.
.	.	8en 8gJ	.
8.d-L]	.	[4.f [4.a-	.
16ck	.	.	.
8BnJ	.	.	.
=41	=41	=41	=41
[4.c	2.C	8.f] 8.a-L]	p
.	.	16en 16gk	.
.	.	8f 8a-J	.
4c]	.	(8g 8b-L	.
.	.	8f 8a-	.
8B-X	.	8e) 8gJ	.
=42	=42	=42	=42
*	*	*^	*
(4.B-	[4.F	(4.g	(4.en	f
8A-)	8F]	8f)	8f)	.
8ryy	8r	8r	8ryy	.
8ryy	8r;	8r;	8ryy	.
*v	*v	*	*	*
*	*v	*v	*
=43	=43	=43
!LO:TX:i:t=legato	!	!
16FLL	8cc	p
16A-	.	.
16c	8r	.
16A-	.	.
16F	8cc	.
16A-JJ	.	.
16E-XLL	8cc	.
16G-	.	.
16An	8r	.
16G-	.	.
16E-	8cc	.
16G-JJ	.	.
=44	=44	=44
16D-LL	(4.cc	f
16F	.	.
16An	.	.
16F	.	.
16D-	.	.
16FJJ	.	.
16D-LL	8b-)	.
16F	.	.
16B-	8r	.
16F	.	.
16C	8a-X	.
16FJJ	.	.
=45	=45	=45
16BB-LL	8g-	.
16D-	.	.
16B-	8r	.
16D-	.	.
16BB-	8b-	.
16D-JJ	.	.
.	(32a-qq	.
16BB-LL	8g-X)	.
16D-	.	.
16B-	8r	.
16D-	.	.
16BBn	8f	.
16A-JJ	.	.
=46	=46	=46
16CLL	(4.f	p
16F	.	.
16A-	.	.
16F	.	.
16C	.	.
16FJJ	.	.
16CLL	8en)	.
16En	.	.
16G	8r	.
16E	.	.
16C	8cc	.
16EJJ	.	.
=47	=47	=47
16D-LL	(4.bn	f
16F	.	.
16A-	.	.
16F	.	.
16D-	.	.
16FJJ	.	.
16D-LL	8ff)	.
16F	.	.
16A-	8r	.
16F	.	.
16D-	8r	.
16FJJ	.	.
=48	=48	=48
16CLL	(4.een	p
16En	.	.
16G	.	.
16E	.	.
16C	.	.
16EJJ	.	.
16CLL	8gg)	.
16E	.	.
16G	8r	.
16E	.	.
16c	8r	.
16GJJ	.	.
*clefG2	*	*
=49	=49	=49
16BnLL	(4.aa-	f
16dn	.	.
16f	.	.
16d	.	.
16B	.	.
16dJJ	.	.
.	32ggqq	.
16BLL	8ff)	.
16d	.	.
16a-	8r	.
16d	.	.
16B	8r	.
16dJJ	.	.
=50	=50	=50
16B-XLL	(4.ddd-X	p
16en	.	.
16g	.	.
16e	.	.
16B-	.	.
16gJJ	.	.
16B-LL	8een)	.
16d-X	.	.
16g	8r	.
16d-	.	.
16B-	8r	.
16gJJ	.	.
=51	=51	=51
16A-LL	8r	.
16c	.	.
16f	8ff'L	.
16c	.	.
16A-	8ff'J	.
16cJJ	.	.
16B-LL	8r	.
16d-	.	.
16f	8dd-'L	.
16d-	.	.
16B-	8dd-'J	.
16d-JJ	.	.
=52	=52	=52
16cLL	8r	.
16f	.	.
16a-	8cc'L	.
16f	.	.
16c	8cc'J	.
16fJJ	.	.
16cLL	8r	.
16g	.	.
16b-	8een'L	.
16g	.	.
16b-	8ee'J	.
16gJJ	.	.
=53	=53	=53
16A-LL	4ff	f
16c	.	.
16f	.	.
16c	.	.
16A-	(16cccLL	.
16cJJ	16aa-JJ)	.
16B-LL	(16aa-LL	.
16d-	16gg)	.
16f	(16ddd-	.
16d-	16bb-)	.
16B-	(16bb-	.
16d-JJ	16ggJJ)	.
=54	=54	=54
.	(32ggqq	.
16cLL	4.ff)	p
16f	.	.
16a-	.	.
16f	.	.
16c	.	.
16fJJ	.	.
*clefF4	*	*
16CLL	4.gg-TT	f
16E-	.	.
16An	.	.
16E-	.	.
16C	.	.
16E-JJ	.	.
.	32ffqLLL	.
.	32gg-qJJJ	.
=55	=55	=55
16D-LL	(8ffL	p
16F	.	.
16Bn	8ggn	.
16F	.	.
16D-	8aa-J)	.
16FJJ	.	.
16DnLL	(8a-L	.
16F	.	.
16A-X	8b-	.
16F	.	.
16D	8bnJ)	.
16FJJ	.	.
=56	=56	=56
8C	(16ccLL	f
.	16dd-X	.
8r	16ddn	.
.	16ee-X	.
8r	16een	.
.	16ffJJ)	.
.	(32fqLLL	.
.	32a-qJJJ	.
(16CLL	4.gtt)	.
16En	.	.
16B-X	.	.
16E	.	.
16C	.	.
16EJJ	.	.
.	32fqLLL	.
.	32gqJJJ	.
=57	=57	=57
8F)	8f	.
8r	8r	.
(8AAn	8c 8e-X 8f	p
8BB-)	8B- 8d- 8f	.
8r	8r	.
8BB-	8f 8dd-	f
=58	=58	=58
*	*^	*
4C	8.f 8.a-L	4c	.
.	16g 16b-k	.	.
8CC	8en 8gJ	8B-	.
8FF	8f	8A-	.
8r	8ryy	8r	.
((8AAn 8An	8ryy	(<(>8g- 8ee-X	p
*	*v	*v	*
=59	=59	=59
8BB- 8B-))	8f 8dd-))	.
8r	8r	.
8Bn 8dn	8a- 8ff	f)
4c	(8.f 8.a-L	.
.	16gn 16b-k	.
8C 8B-	8en) 8gJ	.
=60	=60	=60
(4.F	(<4.B- 4.en (>4.g	.
8FF)	8A-) 8f)	.
8r	8r	.
8r	8r	.
=:|!	=:|!	=:|!
*-	*-	*-
!!!RDF**kern: > = above
!!!RDF**kern: < = below
!!!YOR: Alte Mozart-Ausgabe, Band 20, Breitkopf &amp; H&auml;rtel 1877-1883.
!!!YOY: 1878
!!!YEC: 2018 Craig Stuart Sapp
!!!YEM: Licence: (CC BY-NC-SA 4.0) https://creativecommons.org/licenses/by-nc-sa/4.0
!!!YER: 2018
!!!ENC: Craig Stuart Sapp
!!!END: 2009/09/25
!!!EED: Craig Stuart Sapp
!!!EEV: 2018/06/15
!!!EFL: 5/69
!!!AGN: piano sonata
!!!AFR: siciliana
!!!title: @{OTL}, K 280 (189e), mvmt. @{OMV}
